X:1
T:Title
%%score { ( 1 3 ) | ( 2 4 ) }
L:1/8
M:4/4
K:Db
V:1 treble nm="Grand Piano"
V:3 treble 
V:2 bass 
V:4 bass 
V:1
 z4 z2[Q:1/4=106] A2 | B3 A GFED | A6 z2 | D3 D FEEF |[M:3/4] [CE]6 |[M:1/4] [CA]2 | %6
[M:4/4] B3 A GFED | [Dd]6 [D=G]2 | [DA][DB][DA][K:bass][F,D] [A,DF]2 [G,CE]2 |[M:3/4] [F,D]6 | %10
[M:1/4][K:treble] [Fd]2 |[M:4/4] [Gd]3 c cBAG | F4 A2 d2 | [Ac]3 [Ad] [=Ge][Gd][Gc][GB] | %14
[M:3/4] A6 |[M:1/4] A2 |[M:4/4] [Fd]>[Fd] c4 F2 | B>[DB] [DA]4 [Dd]2 | [DA][DB][DA]d d2 c2 | %19
[M:3/4] [Fd]6 |] %20
V:2
 z4 z2 [D,F,D]2 | [D,G,D]3 [D,F,D] [D,B,D][D,A,D][D,G,A,][D,F,] | E,2 F,2 G,2 A,,2 | %3
 [B,,F,]3 [B,,F,] [E,=G,D][E,G,D][E,G,D][E,G,D] |[M:3/4] [A,,A,]6 |[M:1/4] [A,,G,]2 | %6
[M:4/4] [D,G,D]3 [D,F,D] [D,B,D][D,A,D][D,G,A,][D,F,] | [=A,,_F,]6 [A,,F,]2 | %8
 [A,,F,][A,,G,][A,,F,]A,, A,,2 A,,2 |[M:3/4] D,6 |[M:1/4] [D,A,]2 | %11
[M:4/4] [E,A,]3[K:treble] [A,G] [A,G][A,B,G][A,CF][A,E] | [A,D]4[K:treble] [DF]2 [B,DF]2 | %13
 [E,E]3 [E,C] [E,B,][E,B,][E,E][E,D] |[M:3/4][K:treble] [A,C]6 |[M:1/4] [A,CG]2 | %16
[M:4/4][K:bass] [D,D]>[D,A,] [F,=A,E]4 [F,A,E]2 | [G,B,D]>[B,,G,] [D,F,]4 [=A,,_F,]2 | %18
 [A,,F,][A,,G,][A,,F,][K:treble][A,F] [A,B,G]2 [A,G]2 |[M:3/4][K:bass] [D,A,]6 |] %20
V:3
 x8 | x8 | C2 D2 E2 [A,CF]2 | x8 |[M:3/4] x6 |[M:1/4] x2 |[M:4/4] x8 | x8 | x3[K:bass] x5 | %9
[M:3/4] x6 |[M:1/4][K:treble] x2 |[M:4/4] x8 | x8 | x8 |[M:3/4] x6 |[M:1/4] x2 |[M:4/4] x8 | x8 | %18
 x8 |[M:3/4] x6 |] %20
V:4
 x8 | x8 | A,,6 z2 | x8 |[M:3/4] x6 |[M:1/4] x2 |[M:4/4] x8 | x8 | x8 |[M:3/4] x6 |[M:1/4] x2 | %11
[M:4/4] x3[K:treble] x5 | D,6[K:treble] z2 | x8 |[M:3/4][K:treble] x6 |[M:1/4] x2 | %16
[M:4/4][K:bass] x8 | x8 | x3[K:treble] x5 |[M:3/4][K:bass] x6 |] %20

